src/lib/packages/icons/src/assets/line/stopwatch-minus-alt.svg

<svg width="24" height="24" viewBox="0 0 24 24" fill="none" xmlns="http://www.w3.org/2000/svg">
<path d="M11.7451 20.882C11.7931 21.294 11.4989 21.666 11.0879 21.715C10.8879 21.739 10.7 21.75 10.5 21.75C5.951 21.75 2.25 18.049 2.25 13.5C2.25 8.951 5.951 5.25 10.5 5.25C12.349 5.25 14.0831 5.883 15.4861 6.953L16.47 5.96899C16.763 5.67599 17.238 5.67599 17.531 5.96899C17.824 6.26199 17.824 6.73703 17.531 7.03003L16.5879 7.97302C17.3099 8.76902 17.8991 9.69595 18.2681 10.752C18.4051 11.143 18.1991 11.571 17.8081 11.708C17.4171 11.842 16.9891 11.638 16.8521 11.248C15.9101 8.55805 13.357 6.75 10.5 6.75C6.778 6.75 3.75 9.778 3.75 13.5C3.75 17.222 6.778 20.25 10.5 20.25C10.64 20.25 10.7721 20.242 10.9121 20.226C11.3311 20.168 11.6961 20.471 11.7451 20.882ZM9.75 10V13.5C9.75 13.914 10.086 14.25 10.5 14.25C10.914 14.25 11.25 13.914 11.25 13.5V10C11.25 9.586 10.914 9.25 10.5 9.25C10.086 9.25 9.75 9.586 9.75 10ZM8 3.75H13C13.414 3.75 13.75 3.414 13.75 3C13.75 2.586 13.414 2.25 13 2.25H8C7.586 2.25 7.25 2.586 7.25 3C7.25 3.414 7.586 3.75 8 3.75ZM22.75 17V19C22.75 21.418 21.418 22.75 19 22.75H17C14.582 22.75 13.25 21.418 13.25 19V17C13.25 14.582 14.582 13.25 17 13.25H19C21.418 13.25 22.75 14.582 22.75 17ZM21.25 17C21.25 15.423 20.577 14.75 19 14.75H17C15.423 14.75 14.75 15.423 14.75 17V19C14.75 20.577 15.423 21.25 17 21.25H19C20.577 21.25 21.25 20.577 21.25 19V17ZM19.25 17.25H16.75C16.336 17.25 16 17.586 16 18C16 18.414 16.336 18.75 16.75 18.75H19.25C19.664 18.75 20 18.414 20 18C20 17.586 19.664 17.25 19.25 17.25Z" fill="currentColor"/>
</svg>

<svg xmlns="http://www.w3.org/2000/svg" width="24" height="24" fill="none"><path fill="currentColor" d="M11.745 20.882a.751.751 0 0 1-.657.833 4.83 4.83 0 0 1-.588.035c-4.549 0-8.25-3.701-8.25-8.25 0-4.549 3.701-8.25 8.25-8.25 1.849 0 3.583.633 4.986 1.703l.984-.984a.75.75 0 1 1 1.061 1.061l-.943.943a8.132 8.132 0 0 1 1.68 2.779.75.75 0 0 1-1.416.496A6.735 6.735 0 0 0 10.5 6.75a6.758 6.758 0 0 0-6.75 6.75 6.758 6.758 0 0 0 6.75 6.75c.14 0 .272-.008.412-.024a.74.74 0 0 1 .833.656ZM9.75 10v3.5a.75.75 0 0 0 1.5 0V10a.75.75 0 0 0-1.5 0ZM8 3.75h5a.75.75 0 0 0 0-1.5H8a.75.75 0 0 0 0 1.5ZM22.75 17v2c0 2.418-1.332 3.75-3.75 3.75h-2c-2.418 0-3.75-1.332-3.75-3.75v-2c0-2.418 1.332-3.75 3.75-3.75h2c2.418 0 3.75 1.332 3.75 3.75Zm-1.5 0c0-1.577-.673-2.25-2.25-2.25h-2c-1.577 0-2.25.673-2.25 2.25v2c0 1.577.673 2.25 2.25 2.25h2c1.577 0 2.25-.673 2.25-2.25v-2Zm-2 .25h-2.5a.75.75 0 0 0 0 1.5h2.5a.75.75 0 0 0 0-1.5Z"/></svg>
